src/assets/filled/ProfileCircle.svg

<?xml version="1.0" encoding="UTF-8"?>
<svg width="24" height="24" viewBox="0 0 24 24" xmlns="http://www.w3.org/2000/svg">
 <path d="m22 12c0-5.51-4.49-10-10-10s-10 4.49-10 10c0 2.9 1.25 5.51 3.23 7.34 0 0.01 0 0.01-0.01 0.02 0.1 0.1 0.22 0.18 0.32 0.27 0.06 0.05 0.11 0.1 0.17 0.14 0.18 0.15 0.38 0.29 0.57 0.43 0.07 0.05 0.13 0.09 0.2 0.14 0.19 0.13 0.39 0.25 0.6 0.36 0.07 0.04 0.15 0.09 0.22 0.13 0.2 0.11 0.41 0.21 0.63 0.3 0.08 0.04 0.16 0.08 0.24 0.11 0.22 0.09 0.44 0.17 0.66 0.24 0.08 0.03 0.16 0.06 0.24 0.08 0.24 0.07 0.48 0.13 0.72 0.19 0.07 0.02 0.14 0.04 0.22 0.05 0.28 0.06 0.56 0.1 0.85 0.13 0.04 0 0.08 0.01 0.12 0.02 0.34 0.03 0.68 0.05 1.02 0.05s0.68-0.02 1.01-0.05c0.04 0 0.08-0.01 0.12-0.02 0.29-0.03 0.57-0.07 0.85-0.13 0.07-0.01 0.14-0.04 0.22-0.05 0.24-0.06 0.49-0.11 0.72-0.19 0.08-0.03 0.16-0.06 0.24-0.08 0.22-0.08 0.45-0.15 0.66-0.24 0.08-0.03 0.16-0.07 0.24-0.11 0.21-0.09 0.42-0.19 0.63-0.3 0.08-0.04 0.15-0.09 0.22-0.13 0.2-0.12 0.4-0.23 0.6-0.36 0.07-0.04 0.13-0.09 0.2-0.14 0.2-0.14 0.39-0.28 0.57-0.43 0.06-0.05 0.11-0.1 0.17-0.14 0.11-0.09 0.22-0.18 0.32-0.27 0-0.01 0-0.01-0.01-0.02 1.99-1.83 3.24-4.44 3.24-7.34zm-5.06 4.97c-2.71-1.82-7.15-1.82-9.88 0-0.44 0.29-0.8 0.63-1.1 1-1.52-1.54-2.46-3.65-2.46-5.97 0-4.69 3.81-8.5 8.5-8.5s8.5 3.81 8.5 8.5c0 2.32-0.94 4.43-2.46 5.97-0.29-0.37-0.66-0.71-1.1-1z"/>
 <path d="m12 6.9302c-2.07 0-3.75 1.68-3.75 3.75 0 2.03 1.59 3.68 3.7 3.74h0.09 0.07 0.02c2.02-0.07 3.61-1.71 3.62-3.74 0-2.07-1.68-3.75-3.75-3.75z"/>
</svg>

<svg width="24" height="24" viewBox="0 0 24 24"  xmlns="http://www.w3.org/2000/svg">
<path d="M22 12C22 6.49 17.51 2 12 2C6.49 2 2 6.49 2 12C2 14.9 3.25 17.51 5.23 19.34C5.23 19.35 5.23 19.35 5.22 19.36C5.32 19.46 5.44 19.54 5.54 19.63C5.6 19.68 5.65 19.73 5.71 19.77C5.89 19.92 6.09 20.06 6.28 20.2C6.35 20.25 6.41 20.29 6.48 20.34C6.67 20.47 6.87 20.59 7.08 20.7C7.15 20.74 7.23 20.79 7.3 20.83C7.5 20.94 7.71 21.04 7.93 21.13C8.01 21.17 8.09 21.21 8.17 21.24C8.39 21.33 8.61 21.41 8.83 21.48C8.91 21.51 8.99 21.54 9.07 21.56C9.31 21.63 9.55 21.69 9.79 21.75C9.86 21.77 9.93 21.79 10.01 21.8C10.29 21.86 10.57 21.9 10.86 21.93C10.9 21.93 10.94 21.94 10.98 21.95C11.32 21.98 11.66 22 12 22C12.34 22 12.68 21.98 13.01 21.95C13.05 21.95 13.09 21.94 13.13 21.93C13.42 21.9 13.7 21.86 13.98 21.8C14.05 21.79 14.12 21.76 14.2 21.75C14.44 21.69 14.69 21.64 14.92 21.56C15 21.53 15.08 21.5 15.16 21.48C15.38 21.4 15.61 21.33 15.82 21.24C15.9 21.21 15.98 21.17 16.06 21.13C16.27 21.04 16.48 20.94 16.69 20.83C16.77 20.79 16.84 20.74 16.91 20.7C17.11 20.58 17.31 20.47 17.51 20.34C17.58 20.3 17.64 20.25 17.71 20.2C17.91 20.06 18.1 19.92 18.28 19.77C18.34 19.72 18.39 19.67 18.45 19.63C18.56 19.54 18.67 19.45 18.77 19.36C18.77 19.35 18.77 19.35 18.76 19.34C20.75 17.51 22 14.9 22 12ZM16.94 16.97C14.23 15.15 9.79 15.15 7.06 16.97C6.62 17.26 6.26 17.6 5.96 17.97C4.44 16.43 3.5 14.32 3.5 12C3.5 7.31 7.31 3.5 12 3.5C16.69 3.5 20.5 7.31 20.5 12C20.5 14.32 19.56 16.43 18.04 17.97C17.75 17.6 17.38 17.26 16.94 16.97Z" />
<path d="M12 6.93018C9.93 6.93018 8.25 8.61018 8.25 10.6802C8.25 12.7102 9.84 14.3602 11.95 14.4202C11.98 14.4202 12.02 14.4202 12.04 14.4202C12.06 14.4202 12.09 14.4202 12.11 14.4202C12.12 14.4202 12.13 14.4202 12.13 14.4202C14.15 14.3502 15.74 12.7102 15.75 10.6802C15.75 8.61018 14.07 6.93018 12 6.93018Z" />
</svg>
